X: 18107
T: Humours Of Ballymoty, The
R: jig
M: 6/8
K: Dmixolydian
|:GAB cdc|AGF G2D|A3 dcB|cAF G2B|
cAF GdB|cAF GAB|def dcA|1 AGF G2 D:|2 AGF GBc||
|:ded dcA|d2G GBc|ded dcB|cAG FGA|
ded dcA|dcB c2 A|def dcA|1 AGF G A/B/c:|2 AGF G3|

